src/assets/icons/hamburger.svg

<svg height="90" viewBox="0 0 30 30" width="90" xmlns="http://www.w3.org/2000/svg"><path d="m3 7a1.0001 1.0001 0 1 0 0 2h24a1.0001 1.0001 0 1 0 0-2zm0 7a1.0001 1.0001 0 1 0 0 2h24a1.0001 1.0001 0 1 0 0-2zm0 7a1.0001 1.0001 0 1 0 0 2h24a1.0001 1.0001 0 1 0 0-2z"/></svg>

<svg xmlns="http://www.w3.org/2000/svg"  viewBox="0 0 30 30" width="90px" height="90px"><path d="M 3 7 A 1.0001 1.0001 0 1 0 3 9 L 27 9 A 1.0001 1.0001 0 1 0 27 7 L 3 7 z M 3 14 A 1.0001 1.0001 0 1 0 3 16 L 27 16 A 1.0001 1.0001 0 1 0 27 14 L 3 14 z M 3 21 A 1.0001 1.0001 0 1 0 3 23 L 27 23 A 1.0001 1.0001 0 1 0 27 21 L 3 21 z"/></svg>
